src/dark/hiso font dark_e.svg

<svg xmlns="http://www.w3.org/2000/svg" width="90" height="126" viewBox="0 0 90 126"><path fill="#171816" d="M72 63l-36 18v-36l36 18zm-69 34.15v-68.3l32.99-16.5 29.3 14.65-29.29 14.65v3.35l36-18-36-18-36 18v72l36 18 36-18-36-18v32.65l-33-16.5z"/></svg>

<svg xmlns="http://www.w3.org/2000/svg" width="90" height="126"><path fill="#171816" d="M72 63L36 81V45l36 18zM3 97.15v-68.3l32.99-16.5L65.29 27 36 41.65V45l36-18L36 9 0 27v72l36 18 36-18-36-18v32.65L3 97.15z"/></svg>
